X:1
T:Title
%%score 1 2
L:1/8
Q:1/4=85
M:4/4
K:F
V:1 treble nm="Grand Piano, Soprano"
V:2 bass nm="Choir Pad, Go Wash"
V:1
 F/[FG]/[FA] [FA][FA] [FA][EG]F[DG] | [DF][B,D] [CF]2 F/[FG]/[FA] [FA][FA]/[FA]/ | %2
w: By~Charles~Albert~Tindley * * * * * * * *||
 [FA][EG]F[EG]- [EG]3- [EG]/ z/ | F/[FG]/[FA] [FA][FA] [FA][EG]F[DG] | %4
w: ||
 [DF][B,D] [CF]2 F/[FG]/[FA] [FA][FA] | [EG]F[EG][CF]- [CF]3- [CF]/ z/ | %6
w: ||
 F/F/ [DB]2 [DB]/[DB]/ [DB]2 F/[FA]/[FA] | [FA][FA] [FA]2 F/F/[EG] [EG][EG] | %8
w: ||
 [EG][DF]- [DF]/[EG]/[FA]- [FA]3- [FA]/ z/ | F/F/[FA] [FA][FA] [FA][FA] [EG]/F/[DG] | %10
w: ||
 [DF][B,D] [CF]2 F/[FG]/[FA] [FA][FA]/[FA]/ | [EG]F- F/[EG]/[CF]- [CF]3- [CF]/ z/ | %12
w: ||
 [Fc][Fd][Fc][FA] [EG]F- F/[FA]/[Fc]- | [Fc]4 [Fc][Fd][Fc][FA] | %14
w: ||
 [FA][EG]- [EG]/F/[EG]- [EG]3/2 z/ F2- | F[FA][FA][FA] [FA][FA] [EG]/F/[DG] | %16
w: ||
 [DF][B,D] [CF]2 F/[FG]/[FA] [FA][FA]/[FA]/ | [EG]F- F/[EG]/[CF]- [CF]4- | [CF]2 z2 z4 |] %19
w: |||
V:2
 [F,A,]/[F,B,]/[F,C] [F,C][F,C] [F,C][F,B,][F,A,][B,,B,] | %1
 [B,,B,][B,,F,] [F,A,]2 [F,A,]/[F,B,]/[F,C] [F,C][F,C]/[F,C]/ | %2
 [F,C][F,B,][F,A,][C,C]- [C,C]3- [C,C]/ z/ | %3
 [F,A,]/[F,B,]/[F,C] [F,C][F,C] [F,C][F,B,][F,A,][B,,B,] | %4
 [B,,B,][B,,F,] [F,A,]2 [F,A,]/[F,B,]/[F,C] [F,C][F,C] | %5
 [C,B,][D,A,][C,B,][F,A,]- [F,A,]3- [F,A,]/ z/ | %6
 [F,A,]/[F,A,]/ [B,,B,]2 [B,,B,]/[B,,B,]/ [B,,B,]2 [F,A,]/[F,C]/[F,C] | %7
 [F,C][F,C] [F,C]2 [F,A,]/[F,A,]/[C,C] [C,C][C,C] | %8
 [C,C][C,C]- [C,C]/[C,C]/[F,C]- [F,C]3- [F,C]/ z/ | %9
 [F,A,]/[F,A,]/[F,C] [F,C][F,C] [F,C][F,C] [F,B,]/[F,A,]/[B,,B,] | %10
 [B,,B,][B,,F,] [F,A,]2 [F,A,]/[F,B,]/[F,C] [F,C][F,C]/[F,C]/ | %11
 [C,B,][C,A,]- [C,A,]/[C,B,]/[F,A,]- [F,A,]3- [F,A,]/ z/ | %12
 [F,A,][F,B,][F,A,][F,C] [F,B,][F,A,]- [F,A,]/[F,C]/[F,A,]- | [F,A,]4 [F,A,][F,B,][F,A,][F,C] | %14
 [F,C][F,B,]- [F,B,]/[F,A,]/[C,C]- [C,C]3/2 z/ [F,A,]2- | %15
 [F,A,][F,C][F,C][F,C] [F,C][F,C] [F,B,]/[F,A,]/[B,,B,] | %16
 [B,,B,][B,,F,] [F,A,]2 [F,A,]/[F,B,]/[F,C] [F,C][F,C]/[F,C]/ | %17
 [C,B,][C,A,]- [C,A,]/[C,B,]/[F,A,]- [F,A,]4- | [F,A,]2 z2 z4 |] %19

